src/symbolic/actions/focus-windows-symbolic.svg

<svg xmlns="http://www.w3.org/2000/svg" width="16" height="16"><path d="M1 14.5v-8c0-.5.52-.5.52-.5H5v3H3v4h6v-2h2v3.5c0 .48-.5.5-.5.5h-9s-.5 0-.5-.5z" fill="#5d656b"/><path d="M6.5 1c-.5 0-.5.5-.5.5v8c0 .5.5.5.5.5h9s.5 0 .5-.5v-8c0-.5-.5-.5-.5-.5zM8 4h6v4H8z" fill="#5d656b"/></svg>

<svg xmlns="http://www.w3.org/2000/svg" width="16" height="16" version="1.1">
 <path style="fill:#444444" d="M 1,14.5 V 6.5 C 1,6 1.52,6 1.52,6 H 5 V 9 H 3 V 13 H 9 V 11 H 11 V 14.5 C 11,14.98 10.5,15 10.5,15 H 1.5 C 1.5,15 1,15 1,14.5 Z"/>
 <path style="fill:#444444" d="M 6.5,1 C 6,1 6,1.5 6,1.5 V 9.5 C 6,10 6.5,10 6.5,10 H 15.5 C 15.5,10 16,10 16,9.5 V 1.5 C 16,1 15.5,1 15.5,1 Z M 8,4 H 14 V 8 H 8 Z"/>
</svg>
